X:2630
T:Polonäs i A efter Conrad Sandsten
S:efter Conrad Sandsten
B:[[http://www.smus.se/earkiv/fmk/browselarge.php?lang=sw&katalogid=M+170&bildnr=00010|SMUS - katalog M17 bild 10]] nr 56
B:Conrad Sandstens notbok
O:Kumla, Närke
Z:Nils L
M:3/4
L:1/16
R:Polonäs
K:A
(A,C)(EA) (cA)(ce) (dB)(dB) | cAcA BGBG AECA, | A,CEA cAce dBdB | cAGB A4 A,4 ::
cAce dBdB cAcA | GABd cAGA B4 | cAce dBdB cAcA | BGBG A4 A,4 :| 
(:musicend:)
(:music:)
